img/icons/mime/large/zip.svg

<svg height="145.3" width="144.1" xmlns="http://www.w3.org/2000/svg" xmlns:xlink="http://www.w3.org/1999/xlink"><linearGradient id="a"><stop offset="0" stop-color="#fbffff" stop-opacity="0"/><stop offset="1" stop-color="#fff"/></linearGradient><linearGradient id="b" gradientTransform="matrix(.794075 0 0 1.072367 -1.414638 -1.741932)" gradientUnits="userSpaceOnUse" x1="78.7" x2="22.4" xlink:href="#a" y1="74.5" y2="11.5"/><linearGradient id="c" gradientTransform="matrix(.674011 0 0 1.263393 -1.414638 -1.741932)" gradientUnits="userSpaceOnUse" x1="157.2" x2="110.2" xlink:href="#a" y1="79.3" y2="16.5"/><g stroke="#000" stroke-linejoin="round"><path d="m74.5 5.8-68.7 17.4.1 90.9v.2h.3l68.1 25.2 64.1-26.4v-5.3-84.6z" fill="none" stroke-opacity=".5" stroke-width="11.5"/><path d="m138.3 23.2v84.6l-61.8-13.6-2.1-88.4z" fill="#515151" stroke-linecap="round" stroke-width="6.9"/><path d="m5.7 23.2 68.7-17.4 4.4 91.5-73 17z" fill="#4a494d" stroke-linecap="round" stroke-width="6.9"/><path d="m74.3 44.4 64-21.2-63.9-17.4-68.7 17.4z" fill="#9db8d2" stroke-linecap="round" stroke-width="6.9"/><path d="m138.3 23.2v89.9l-64 26.5v-95.2z" fill="#4b6983" stroke-linecap="round" stroke-width="6.9"/><path d="m74.3 44.4v95.2l-68.5-25.5-.1-90.9z" fill="#7590ae" stroke-linecap="round" stroke-width="6.9"/></g><path d="m74.2 9.4-64.8 16.5v84.6c67.4 26.5 78.6 43.8 61.4-68.6 61.1-22.5 3.4-32.5 3.4-32.5z" fill="url(#b)"/><path d="m77.8 47v86.5c.3 0 27.2-10.1 39.6-22.8 12.7-10.4 17-31.5 17-31.5v-51.7z" fill="url(#c)" fill-opacity=".8"/><path d="m74.3 44.4v95.2l-68.5-25.5-.1-90.9z" fill="none" stroke="#000" stroke-linecap="round" stroke-linejoin="round" stroke-width="6.9"/><rect fill="#fff" height="43.4" rx="7.4" stroke="#000" stroke-width="3.5" width="102.2" x="21.6" y="66.2"/><path d="m86.5 92.2v10.3h-6.2v-28.7h17.2c2.7 0 4.8.8 6.3 2.4 1.6 1.5 2.4 3.8 2.4 6.8s-.8 5.3-2.4 6.9c-1.5 1.6-3.6 2.3-6.3 2.3zm0-13.5v8.6h8.2c1.4 0 2.5-.3 3.3-1 .9-.7 1.3-1.8 1.3-3.3 0-1.4-.4-2.5-1.3-3.2-.8-.7-1.9-1.1-3.3-1.1zm-10.5 23.8h-6.2v-28.7h6.2zm-9.1-4.9v4.9h-26.3v-4.9l17.5-18.7v-.2h-17.5v-4.9h26.3v4.9l-17.6 18.7v.2z"/></svg>

<svg xmlns:svg="http://www.w3.org/2000/svg" xmlns="http://www.w3.org/2000/svg" xmlns:xlink="http://www.w3.org/1999/xlink" height="145.3" width="144.1" id="svg1" version="1">
  <metadata id="metadata33"/>
  <defs id="defs3">
    <linearGradient id="linearGradient850">
      <stop id="stop851" offset="0" style="stop-color:#fbffff;stop-opacity:0"/>
      <stop id="stop852" offset="1" style="stop-color:#ffffff;stop-opacity:1"/>
    </linearGradient>
    <linearGradient gradientUnits="userSpaceOnUse" gradientTransform="matrix(0.794075,0,0,1.072367,-1.4146384,-1.7419324)" y2="11.5" x2="22.4" y1="74.5" x1="78.7" id="linearGradient859" xlink:href="#linearGradient850"/>
    <linearGradient id="linearGradient839">
      <stop id="stop840" offset="0" style="stop-color:#46a046;stop-opacity:1"/>
      <stop id="stop841" offset="0.4" style="stop-color:#df421e;stop-opacity:1"/>
      <stop id="stop842" offset="0.7" style="stop-color:#ada7c8;stop-opacity:1"/>
      <stop id="stop843" offset="1" style="stop-color:#eed680;stop-opacity:1"/>
    </linearGradient>
    <linearGradient id="linearGradient833">
      <stop id="stop834" offset="0" style="stop-color:#00ff00;stop-opacity:1"/>
      <stop id="stop837" offset="0.3" style="stop-color:#ff0000;stop-opacity:1"/>
      <stop id="stop838" offset="0.8" style="stop-color:#7f8cff;stop-opacity:1"/>
      <stop id="stop835" offset="1" style="stop-color:#ffff00;stop-opacity:1"/>
    </linearGradient>
    <linearGradient gradientUnits="userSpaceOnUse" gradientTransform="matrix(0.674011,0,0,1.263393,-1.4146384,-1.7419324)" y2="16.5" x2="110.2" y1="79.3" x1="157.2" id="linearGradient836" xlink:href="#linearGradient850"/>
    <linearGradient y2="0" x2="0" y1="0.7" x1="0.6" id="linearGradient855" xlink:href="#linearGradient850"/>
    <linearGradient y2="0.3" x2="0.7" y1="0.9" x1="0.4" id="linearGradient853" xlink:href="#linearGradient850"/>
  </defs>
  <path id="path874" d="M74.5 5.8L5.8 23.2 5.9 114.1 5.9 114.1 5.9 114.3 6.2 114.3 74.3 139.5 138.4 113.1 138.4 107.8 138.4 23.2 74.5 5.8z" style="fill:none;font-family:Trek;font-size:40;stroke-linejoin:round;stroke-opacity:0.5;stroke-width:11.5;stroke:#000"/>
  <path id="path633" d="M138.3 23.2L138.3 107.8 76.5 94.2 74.4 5.8 138.3 23.2z" style="fill:#515151;font-size:12;stroke-linecap:round;stroke-linejoin:round;stroke-width:6.9;stroke:#000"/>
  <path id="path631" d="M5.7 23.2L74.4 5.8 78.8 97.3 5.8 114.3 5.7 23.2z" style="fill:#4a494d;font-size:12;stroke-linecap:round;stroke-linejoin:round;stroke-width:6.9;stroke:#000"/>
  <path id="path640" d="M74.3 44.4L138.3 23.2 74.4 5.8 5.7 23.2 74.3 44.4z" style="fill:#9db8d2;font-size:12;stroke-linecap:round;stroke-linejoin:round;stroke-width:6.9;stroke:#000"/>
  <path id="path627" d="M138.3 23.2L138.3 113.1 74.3 139.6 74.3 44.4 138.3 23.2z" style="fill:#4b6983;font-size:12;stroke-linecap:round;stroke-linejoin:round;stroke-width:6.9;stroke:#000"/>
  <path id="path629" d="M74.3 44.4L74.3 139.6 5.8 114.1 5.7 23.2 74.3 44.4z" style="fill:#7590ae;font-size:12;stroke-linecap:round;stroke-linejoin:round;stroke-width:6.9;stroke:#000"/>
  <path id="path892" d="M74.2 9.4L9.4 25.9 9.4 110.5C76.8 137 88 154.3 70.8 41.9 131.9 19.4 74.2 9.4 74.2 9.4z" fill="url(#linearGradient859)"/>
  <path id="path849" d="M77.8 47L77.8 133.5C78.1 133.5 105 123.4 117.4 110.7 130.1 100.3 134.4 79.2 134.4 79.2L134.4 27.5 77.8 47z" style="fill-opacity:0.8;fill:url(#linearGradient836)"/>
  <path id="path852" d="M74.3 44.4L74.3 139.6 5.8 114.1 5.7 23.2 74.3 44.4z" style="fill:none;font-size:12;stroke-linecap:round;stroke-linejoin:round;stroke-width:6.9;stroke:#000"/>
  <rect rx="7.4" y="66.2" x="21.6" ry="7.4" height="43.4" width="102.2" id="rect853" style="fill:#fff;stroke-width:3.5;stroke:#000"/>
  <path id="path913" d="M86.5 92.2L86.5 102.5 80.3 102.5 80.3 73.8 97.5 73.8C100.2 73.8 102.3 74.6 103.8 76.2 105.4 77.7 106.2 80 106.2 83 106.2 86 105.4 88.3 103.8 89.9 102.3 91.5 100.2 92.2 97.5 92.2L86.5 92.2zM86.5 78.7L86.5 87.3 94.7 87.3C96.1 87.3 97.2 87 98 86.3 98.9 85.6 99.3 84.5 99.3 83 99.3 81.6 98.9 80.5 98 79.8 97.2 79.1 96.1 78.7 94.7 78.7L86.5 78.7zM76 102.5L69.8 102.5 69.8 73.8 76 73.8 76 102.5zM66.9 97.6L66.9 102.5 40.6 102.5 40.6 97.6 58.1 78.9 58.1 78.7 40.6 78.7 40.6 73.8 66.9 73.8 66.9 78.7 49.3 97.4 49.3 97.6 66.9 97.6z" style="font-family:Trek;font-size:40;stroke-width:1"/>
</svg>
